!!!COM: John Williams
!!!OTL: Ewok Horn Call Basic
!!!GAW: Star Wars: Episode VI: Return of the Jedi
!!!ODT: 1983
!!!OCL: Frank Lehman
!!!ENC: Claire Arthur
!!!ENC2: John McNamara
**kern	**harte	**harm	**altharm	**pedal	**cadence	**text
*clefG2	*	*	*	*	*	*
*k[b-e-]	*k[b-e-]	*k[b-e-]	*	*	*	*
*B-:	*B-:	*B-:	*	*	*	*
*M4/4	*M4/4	*M4/4	*	*	*	*
*MM120	*	*	*	*	*	*
16b-	.	Bb:	.	.	.	.
=1	=1	=1	=1	=1	=1	=1
4..ff	Bb:9	I	.	.	.	.
16b-	.	.	.	.	.	.
4..ff	.	.	.	.	.	.
16b-	.	.	.	.	.	.
=2	=2	=2	=2	=2	=2	=2
8.ffL	.	.	.	.	.	.
16b-Jk	Bb:maj(A9)	.	.	.	.	.
8.eeL	.	.	.	.	.	.
16gg#Jk	.	.	.	.	.	.
4ff	Bb:9	.	.	.	.	.
16b-KL	.	.	.	.	.	.
8r	.	.	.	.	.	.
16b-Jk	.	.	.	.	.	.
=3	=3	=3	=3	=3	=3	=3
4..ff	Bb:9	.	.	.	.	.
16b-	.	.	.	.	.	.
4..ff	.	.	.	.	.	.
16aa	.	.	.	.	.	.
=4	=4	=4	=4	=4	=4	=4
8.gg#L	.	-vi	#im7m9	.	.	.
16eeJk	.	.	.	.	.	.
8.aL	.	.	.	.	.	.
16cc#Jk	.	.	.	.	.	.
4.ff	Bb:9	I	.	.	{ICC}	.
16r	.	.	.	.	.	.
16b-	.	.	.	.	.	.
=5	=5	=5	=5	=5	=5	=5
4..ff	Bb:9	I	.	.	.	.
16b-	.	.	.	.	.	.
4..ff	.	.	.	.	.	.
16b-	.	.	.	.	.	.
=6	=6	=6	=6	=6	=6	=6
8.ffL	Bb:maj(A9)	.	.	.	.	.
16b-Jk	.	.	.	.	.	.
8.eeL	.	.	.	.	.	.
16gg#Jk	.	.	.	.	.	.
4ff	Bb:9	.	.	.	.	.
16b-KL	.	.	.	.	.	.
8r	.	.	.	.	.	.
16b-Jk	.	.	.	.	.	.
=7	=7	=7	=7	=7	=7	=7
4..ff	Bb:9	.	.	.	.	.
16b-	.	.	.	.	.	.
4..ff	.	.	.	.	.	.
16aa	.	.	.	.	.	.
=8	=8	=8	=8	=8	=8	=8
8.gg#L	.	-vi	#im7m9	.	.	.
16eeJk	.	.	.	.	.	.
8.aL	.	.	.	.	.	.
16ffJk	.	.	.	.	{ACC}	.
2b-	Bb:9	I	.	.	]]	.
=	=	=	=	=	=	=
*-	*-	*-	*-	*-	*-	*-
